X:1
T:Nun freut euch, lieben Christen.
T:Nun freut euch, lieben Christen.
T:J.S. Bach
T:Rejoice, beloved Christians
T:Réjouissez-vous, chrétiens aimés!
T:Arrt F. Busoni
T:BWV 734
C:J.S. Bach
%%score { ( 1 4 6 ) | ( 2 3 5 ) }
L:1/8
Q:1/4=120
M:4/4
K:G
V:1 treble nm="Piano"
V:4 treble 
V:6 treble 
V:2 bass 
V:3 bass 
V:5 bass 
V:1
"^Allegro""^Lebhaft und heiter. Die Figuration sehr fliessend bei grosser Getrenntheit.""^Molto scorrevole, ma distintamente."!mf! G/F/G/A/ | %1
 B/d/c/B/ A/G/A/B/ c/e/d/c/ B/A/B/c/ | d/g/f/e/"_marc. il canto fermo" d/c/B/A/ B/c/B/A/ G/F/G/A/ | %3
 B/G/A/B/ c/d/e/f/ g/B/A/G/ d/^c/d/e/ | f/a/g/f/ e/^d/e/f/ g/b/a/g/ =c'/f/g/b/ | %5
 e/a/g/f/ e/d/e/g/ f/g/f/e/ d/c/B/A/ | G/A/B/c/ d/c/d/e/ =f/a/g/f/ e/d/e/^f/ | %7
!<(! g/b/a/g/ f/e/f/g/!<)!!>(! a/d/^c/B/ A/G/F/E/!>)! | F/G/F/E/ D/^C/D/E/ F/D/E/F/ G/A/B/=c/ | %9
 d/e/d/c/ B/A/B/c/ d/g/f/e/ d/c/B/A/ | G/A/B/c/ d/c/d/e/ =f/a/g/f/ e/^d/e/^f/ | %11
 g/b/a/g/ a/g/f/e/ =d/a/g/f/ g/f/e/d/ | e/=f/e/d/ e/d/c/B/ c/e/d/c/ d/c/B/A/ | %13
 B/c/B/A/ B/A/G/F/ G/A/G/F/ G/=F/E/D/ | E/=F/E/D/ E/D/C/B,/ C/E/D/C/ D/C/B,/A,/ | %15
 B,/"_cresc."G,/A,/B,/ C/D/E/F/!<(! G/D/E/F/ G/F/G/A/!<)! | %16
!f! B/d/c/B/ A/G/A/B/ c/e/d/c/ B/A/B/c/ | d/g/f/e/ d/c/B/A/"_più marc." B/c/B/A/ G/F/G/A/ | %18
 B/c/A/B/ c/d/e/f/ g/B/A/G/ d/^c/d/e/ | f/a/g/f/ e/^d/e/f/ z/ g/a/b/ =c'/f/g/b/ | %20
 e/a/g/f/ e/d/e/g/ f/g/f/e/ d/c/B/A/ |"^ten." G/A/B/c/ d/c/d/e/ =f/a/g/f/!<(! e/d/e/^f/!<)! | %22
 g/b/a/g/!<(! f/e/f/g/!<)! !>!a/d/^c/B/ A/G/F/E/ | F/G/F/E/ D/^C/D/E/!<(! F/D/E/F/ G/A/B/=c/!<)! | %24
 d/e/d/c/ B/A/B/c/ d/g/f/e/ d/c/B/A/ | B4 c4 | =d2 c2 B4 | A8 | %28
"_ten." B/c/B/A/ B/A/G/F/ G/A/G/F/ G/=F/E/D/ | G4 z4 | %30
"_dim." B,GFA,-!>(! A,/B,/^C/^D/ E/D/E/F/!>)! | %31
"_più legg."!f! G/B/A/G/ F/E/F/G/ A/c/B/A/ G/F/G/A/ | %32
 B/e/d/c/!mp! B/"_dolce sempre"A/G/F/ G/A/G/F/ E/^D/E/F/ | G/B/A/G/ F/E/F/G/ A/B/^c/^d/ e/d/e/f/ | %34
 g/b/a/g/ f/e/f/g/ a/=c'/b/a/ g/f/g/a/ | b/g/f/e/ d/c/B/A/ G/A/B/A/ G/F/E/=D/ | %36
 ^C/D/B,/C/ D/C/D/E/ F/A/G/F/ E/D/E/F/ | G/B/A/G/ F/E/F/G/ A/d/^c/B/ A/G/F/E/ | %38
 F/G/F/E/ D/^C/D/E/ F/A/G/F/ E/^D/E/F/ | G/B/A/G/ F/E/F/G/ A/c/B/A/ G/F/G/A/ | %40
 B/D/E/F/ G/F/G/A/ B/d/c/B/ A/G/A/B/ | c/e/d/c/ B/A/B/c/ d/g/f/e/ d/c/B/A/ | %42
 G/A/B/c/ d/c/d/e/ =f/a/g/f/ e/d/e/^f/ | g/b/a/g/ f/e/f/g/ a/=c'/b/a/ g/f/g/a/ | %44
 b/e/=d/=c/ B/A/G/F/ E/g/f/e/ d/c/B/A/ | G/F/G/A/ B/d/c/B/ A/G/A/B/ c/e/d/c/ | %46
 B/A/B/c/- c/B/c/d/- d/c/B/A/ G/F/E/D/ | E/D/E/F/ G/B/A/G/ F/E/F/G/ A/=c/B/A/ | %48
"^legg." B/G/A/B/ c/d/e/=f/ g/a/g/f/ g/f/e/d/ | e/=f/e/d/ e/d/c/B/ c/e/d/c/ d/c/B/A/ | %50
 B/c/B/A/ B/A/G/^F/ G/A/G/=F/ G/F/E/D/ | E/=F/E/D/ E/D/C/B,/ C/E/D/C/ D/C/B,/A,/ | %52
 B,G ^FA,- A,/B,/^C/^D/ E/D/E/F/ | G/B/A/G/ F/E/F/G/ A/c/B/A/ G/F/G/A/ | %54
 B/e/d/c/ B/A/G/F/ G/A/G/F/ E/^D/E/F/ | G/!tenuto!B/A/G/ F/E/F/G/ !tenuto!A/B/^c/^d/ e/d/e/f/ | %56
 g/b/a/g/ f/e/f/g/ a/c'/b/a/ g/f/g/a/ | b/g/f/e/ d/c/B/A/ G/A/B/A/ G/F/E/D/ |"^ten." !tenuto!A8 | %59
!<(! x8!<)! | F/G/F/E/ D/^C/D/E/ F/A/G/F/ E/^D/E/F/ | G/B/A/G/ F/E/F/G/ A/c/B/A/ G/F/G/A/ | %62
"_cresc." B/D/E/F/ G/F/G/A/ B/d/c/B/ A/G/A/B/ | c/e/d/c/ B/A/B/c/ d/g/f/e/ d/c/B/A/ | %64
"^ten." G/A/"_più cresc."B/c/ d/c/d/e/ =f/a/g/f/!<(! e/d/e/^f/!<)! | %65
 g/b/a/g/!<(! f/e/f/g/!<)! a/_c'/b/a/!<(! g/f/g/a/!<)! | %66
!<(! !>!b/e/=d/=c/ B/A/G/F/!<)!!f! E/g/f/e/ d/c/B/A/ | G/F/G/A/ B/d/c/B/ A/G/A/B/ c/e/d/c/ | %68
 B/A/B/c/- c/B/c/d/- d/c/B/A/ G/F/E/D/ | E/D/E/F/ G/B/A/G/ F/E/F/G/ A/=c/B/A/ | %70
 B/G/-!ff!A/B/ c/d/e/=f/ g/a/g/f/ g/f/e/d/ | e/=f/e/d/ e/d/c/B/ c/e/d/c/ d/c/B/A/ | %72
 B/c/B/A/ B/A/G/F/ G/A/G/=F/ G/F/E/D/ | E/=F/E/D/ E/D/C/B,/ C/E/D/C/ D/C/B,/A,/ | %74
[K:bass] B,/!f!C/B,/A,/ B,/A,/G,/F,/ G,/A,/G,/=F,/ G,/F,/E,/D,/ | %75
 E,/=F,/E,/D,/ E,/D,/C,/B,,/ C,/E,/D,/C,/!<(! D,/C,/B,,/A,,/!<)! |!f!!<(! !wedge!B,, x3 x4!<)! | %77
!ff! !^![B,,G,]8 |] %78
V:2
"_il Basso sempre staccato" .B,,.D, | .G,,.G,!>!.D,.F, .A,,.A,!>!.E,.G, | z4 .G,4 | G,2 A,2 B,4 | %4
 A,4 G,4 | A,4 x4 |"^ten." B,8- | B, z z2 z4 | D,A,,F,,A,, D,,=C,B,,A,, | z4 G,2 A,2 | B,4 C4 | %11
 =D2 C2 B,4 | A,8 |"^ten." G,D,G,,A,, B,,D,B,,G,, | C,B,,C,D, E,A,^F,D, | %15
 .G,C,B,,A,, B,,A,,G,,F,, | G,,G,D,F, A,,A,E,G, | B,,C,D,D,, G,,D,B,,D, | !^!G,2 !^!A,2 !^!x4 | %19
 !^!A,4 !^!G,4 | !^!A,4 !^!A,4 | !tenuto!B,8- | B, z z2 z4 | D,A,,F,,A,, D,,=C,B,,A,, | %24
 z4 G,2 A,2 | B,4 C4 | D2 C2 B,4 | A,8 | !tenuto!G,8- | G,4 z4 | x8 | E, E,,B,,E, ^D,B,,E,C, | %32
 z4 B,4 | B,4 A,4 | G,4 F,4 | G,2 A,2 B,4 | !>!A,8- | A,2 z2 z4 | z4 A,4 | G,4 F,4 | G,4 D,4 | %41
 G,4 A,4 | B,8- | B,2 z2 z4 | G,A,B,B,, G,2 A,2 | !>!B,4 !>!C4 | D2 C2 x4 | %47
 C,,A,,,B,,,^C,, D,,E,,F,,D,, |"^ten." G,8- | G,8- | .D,.G,,.C,.A,, .B,,.D,.B,,.G,, | %51
 .C,.G,,.C,.D, .E,.=F,.E,.C, | G,,/A,,/B,,/C,/ D,/C,/D,/E,/ F,A,G,F, | E, E,,B,,E, ^D,B,,E,C, | %54
 G,,A,,B,,^D, E,F,G,F, | !tenuto!B,4 !tenuto!A,4 | !tenuto!G,4 !tenuto!F,4 | %57
 !tenuto!G,2 !tenuto!A,2 !tenuto!B,4 | !>!A,8- | A,2 z2 z4 | D,,A,,F,,A,, !tenuto!A,4 | %61
 !tenuto!G,4 !tenuto!F,4 | G,4 D,4 | G,4 A,4 | !>!B,8- | %65
 E,^C,[^D,F,][E,G,] [F,A,][D,F,][E,G,][F,A,] | [G,B,]A,B,B,, E,,C,F,,D, | !^![B,,B,]4 !^![C,C]4 | %68
 !^![D,D]2 !^![C,C]2 [G,,G,]D,,E,,B,,, | !^!A,,8 | [G,,G,]8 | %71
 [C,,C,][B,,,B,,][C,,C,][D,,D,] [E,,E,][A,,,A,,][B,,,B,,][C,,C,] | %72
 [D,,D,][G,,,G,,][C,,C,][A,,,A,,] [B,,,B,,][D,,D,][B,,,B,,][G,,,G,,] | %73
 [C,,C,][G,,,G,,][C,,C,][D,,D,] [E,,E,][=F,,=F,][E,,E,][C,,C,] | %74
 D,/E,/D,/C,/ D,/C,/B,,/A,,/ B,,/C,/B,,/A,,/ A,,/D,/C,/B,,/ | %75
 C,/A,,/G,,/=F,,/ G,,/F,,/E,,/D,,/ E,,/G,,/F,,/E,,/ ^F,,/A,,/G,,/F,,/ | %76
 G,, [E,,C,]/[I:staff -1][E,C]/[I:staff +1] [D,,B,,]/[I:staff -1][D,B,]/[I:staff +1][C,,A,,]/[I:staff -1][C,A,]/[I:staff +1] [D,,B,,]/[I:staff -1][D,B,]/[I:staff +1][C,,A,,]/[I:staff -1][C,A,]/[I:staff +1] [B,,,G,,]/[I:staff -1][B,,G,]/[I:staff +1][A,,,F,,]/[I:staff -1][A,,F,]/ | %77
[I:staff +1] !^![G,,,D,,G,,]8 |] %78
V:3
 x2 | x8 | .B,,.C,.D,.D,, .G,,.D,.B,,.D, | .G,, .G,2 .F,- F,.E,.D,.^C, | %4
 .D,.B,,.^C,.^D, .E,.F,.E,.=D, | .=C,.A,,.B,,.C, .D,.E,.F,.D, | G,A,/G,/ =F,E, D,G,C,D, | %7
 E,^CDB, F,G,A,A,, | x8 | B,,D,G,,A,, B,,E,F,D, | G,G,=F,E, A,A,G,^F, | B,E,F,D, G,D,E,B,, | %12
 C,B,,C,A,, ^F,E,F,D, | G,8- | G,2 z2 z4 | x8 | G,, x3 A,, x3 | B,, x3 !^!G,4 | %18
 G,, G,2 F,- F,E,D,^C, | D,B,,^C,^D, E,F,E,=D, | =C,A,,B,,C, D,E,F,D, | G,A,/G,/ =F,E, D,G,C,D, | %22
 E,^CDB, F,G,A,A,, | x8 | B,,D, G,,A,, B,, E,F,D, | G,G,=F,E, A,A,G,^F, | B,E,F,D, G,D,E,B,, | %27
 C,B,,C,A,, ^F,E,F,D, | G,D,G,,A,, B,,D,B,,G,, | C,G,,C,,D,, E,,A,,^F,,D,, | %30
 G,,/A,,/B,,/C,/ D,/C,/D,/E,/ F,A,G,F, | x8 | G,,A,,B,,^D, E,F,G,F, | E,^C,^D,E, F,B,,C,D, | %34
 E,B,, E,3 =D,/=C,/ B,,A,, | G,, G,2 F,- F,^D,E,G,- | G,F,/E,/ F,^C, D,A,,C,A,, | %37
 E,A,,D,B,, F,,G,,A,,^C, | D,,A,,F,,A,, D,B,,^C,^D, | E,B,, E,2- E,=D,/=C,/ B,,A,, | %40
 G,,C,B,,A,, G,,E,,F,,D,, | E,C,D,B,, F,D,E,=F,- | =F,G,F,E, D,G,C,D, | E,^C,^D,E, F,D,E,F, | %44
 x4 !wedge!E,,!wedge!C,!wedge!F,,!wedge!D, | z D, G,2- G,F, A,2- | %46
 A, G,2 F, .[G,,G,].D,,.E,,.B,,, | x8 | .G,,"_sempre staccato".=F,.E,.C, .B,,.D,.B,,.G,, | %49
 .C,.B,,.C,.D, .E,.A,,.B,,.C, | .G,2 x6 | x8 | x8 | x8 | z4 !tenuto!B,4 | E,^C,^D,E, F,B,,C,D, | %56
 E,B,, E,3 =D,/=C,/ B,,A,, | G,, G,2 F,- F,^D,E,G,- | G,F,/E,/ F,^C, D,A,,C,A,, | %59
 E,A,,D,B,, F,,G,,A,,^C, | x4 D,B,,^C,^D, | E,B,, E,3 =D,/=C,/ B,,A,, | G,,C,B,,A,, G,,E,,F,,D,, | %63
 E,C,D,B,, F,D,E,=F,- | F,G,=F,E, D,G,C,D, | B,2 x6 | x4 !^![G,,G,]2 !^![A,,A,]2 | G,,4 A,,4 | %68
 B,,2 A,,2 !^!B,,4 | C,,A,,,B,,,^C,, D,,E,,F,,D,, | %70
 [G,,G,][=F,,=F,][E,,E,][C,,C,] [B,,,B,,][D,,D,][B,,,B,,][G,,,G,,] | x8 | x8 | x8 | G,,8 | %75
 G,,4 x4 | x8 | x8 |] %78
V:4
 x2 | x8 | x8 | x8 | x8 | x8 | x8 | x8 | x8 | x8 | x8 | x8 | x8 | x8 | x8 | x8 | x8 | z4 !^!G4 | %18
 !^!G2 !^!A2 !^!B4 | !^!A4 !^!G4 | !^!A4 !^!A4 | !tenuto!B8- | B z z2 z4 | x8 | z4 G2 A2 | %25
 G/A/B/c/ d/c/d/e/ =f/a/g/f/ e/^d/e/^f/ | g/b/a/g/ a/g/f/e/ d/a/g/f/ g/f/e/d/ | %27
 e/=f/e/d/ e/d/c/B/ c/e/d/c/ d/c/B/A/ | !tenuto!G8 | E/=F/E/D/ E/D/C/B,/ C/E/D/C/ D/C/B,/A,/ | x8 | %31
 x8 | x8 | x8 | x8 | x8 | x8 | x8 | x8 | x8 | x8 | x8 | x8 | x8 | x8 | x8 | x4 B,4 | !>!A,8 | x8 | %49
 x8 | x8 | x8 | x8 | x8 | x4 !tenuto!B4 | x/ B4 x7/2 | !tenuto!G4 !tenuto!F4 | %57
 !tenuto!G2 !tenuto!A2 !tenuto!B4 | ^C/D/B,/C/ D/C/D/E/ F/A/G/F/ E/D/E/F/ | %59
 G/B/A/G/ F/E/F/G/!>(! A/!>!d/^c/B/ A/G/F/E/!>)! | x9/2 !tenuto!A7/2 | !tenuto!G4 !tenuto!F4 | %62
 G4 D4 | G4 A4 | !>!B8 | x8 | x8 | x8 | x8 | !^!A,8 | x/ G7/2 G4- | G8- | G DEC DB,DB, | %73
 G,CG,=F, G,A,G,E, |[K:bass] x8 | x8 | x8 | x8 |] %78
V:5
 x2 | x8 | x8 | x8 | x8 | x8 | x8 | x8 | x8 | x8 | x8 | x8 | x8 | x8 | x8 | x8 | x8 | z4 x4 | x8 | %19
 x8 | x8 | x8 | x8 | x8 | x8 | x8 | x8 | x8 | x8 | x8 | x8 | x8 | x8 | x8 | x8 | x8 | x8 | x8 | %38
 x8 | x8 | x8 | x8 | x8 | x8 | x8 | G,,4 A,,4 | B,,2 A,,2 x4 | x8 | x8 | x8 | x8 | x8 | x8 | x8 | %54
 x8 | x8 | x8 | x8 | x8 | x8 | x8 | x8 | x8 | x8 | x8 | x8 | x8 | z D, G,2- G,F, A,2- | %68
 A, G,2 F,[I:staff -1] B,4 | x8 | x8 | x8 | x8 | x8 | x8 | x8 | x8 | x8 |] %78
V:6
 x2 | x8 | x8 | x8 | x8 | x8 | x8 | x8 | x8 | x8 | x8 | x8 | x8 | x8 | x8 | x8 | x8 | x8 | x8 | %19
 x8 | x8 | x8 | x8 | x8 | x8 | x B3 x4 | x8 | x8 | x6 G2- | x8 | x8 | x8 | x8 | x8 | x8 | x8 | x8 | %37
 x8 | x8 | x8 | x8 | x8 | x8 | x8 | x8 | x8 | x8 | x8 | x8 | x8 | x8 | x8 | x8 | x8 | x8 | x4 A4 | %56
 x8 | x5 B2 x | x9/2 A2 x3/2 | z8 | x8 | x13/2 F x/ | x8 | x8 | x8 | x8 | x8 | x8 | x8 | x8 | x8 | %71
 x8 | x8 | x8 |[K:bass] x8 | x8 | x8 | x8 |] %78

